X: 2
T: Jenny Lind
R: polka
M: 2/4
L: 1/8
K: Dmaj
AG|F2 A2 G2 B2|A2 f2 fafd|B2 e2 efec|A2 D2 D2:|fe|d2 B2 BcdB|A2 F2 F3 A|G2 E2 EFGE| F2 D2 D2:|


Tune 4883	Setting 28503

